currency-eur-off.svg

<svg fill="currentColor" viewBox="0 0 24 24"><path d="M22.11 21.46 2.39 1.73 1.11 3 6.7 8.59c-.06.14-.13.27-.2.41H3l-1 2h4.06c-.06.33-.06.66-.06 1s0 .67.06 1H3l-1 2h4.5c1.26 3.5 4.58 6 8.5 6 1.21 0 2.36-.26 3.41-.7l2.43 2.43zM8.58 13c-.05-.33-.08-.66-.08-1s.03-.67.08-1h.53l2 2zM15 18.5c-2.5 0-4.68-1.42-5.76-3.5h3.87l3.33 3.33c-.47.1-.94.17-1.44.17M12.2 9H16l-1 2h-.8zm-1.7-1.68L8.74 5.54A8.96 8.96 0 0 1 15 3c2.3 0 4.41.87 6 2.3l-1.77 1.77A6.47 6.47 0 0 0 15 5.5c-1.74 0-3.31.7-4.5 1.82"/></svg>

<svg  viewBox="0 0 24 24" fill="currentColor"><path  d="M22.11 21.46L2.39 1.73L1.11 3L6.7 8.59C6.64 8.73 6.57 8.86 6.5 9H3L2 11H6.06C6 11.33 6 11.66 6 12S6 12.67 6.06 13H3L2 15H6.5C7.76 18.5 11.08 21 15 21C16.21 21 17.36 20.74 18.41 20.3L20.84 22.73L22.11 21.46M8.58 13C8.53 12.67 8.5 12.34 8.5 12S8.53 11.33 8.58 11H9.11L11.11 13H8.58M15 18.5C12.5 18.5 10.32 17.08 9.24 15H13.11L16.44 18.33C15.97 18.43 15.5 18.5 15 18.5M12.2 9H16L15 11H14.2L12.2 9M10.5 7.32L8.74 5.54C10.36 3.97 12.56 3 15 3C17.3 3 19.41 3.87 21 5.3L19.23 7.07C18.09 6.09 16.61 5.5 15 5.5C13.26 5.5 11.69 6.2 10.5 7.32Z"/></svg>
